lib/svgs/t.svg

<?xml version="1.0" encoding="UTF-8"?>
<svg width="16px" height="16px" viewBox="0 0 16 16" version="1.1" xmlns="http://www.w3.org/2000/svg" xmlns:xlink="http://www.w3.org/1999/xlink">
    <!-- Generator: sketchtool 51.3 (57544) - http://www.bohemiancoding.com/sketch -->
    <title>t</title>
    <desc>Created with sketchtool.</desc>
    <defs></defs>
    <g id="Icons" stroke="none" stroke-width="1" fill="none" fill-rule="evenodd">
        <g id="Deprecated" transform="translate(-92.000000, -200.000000)" fill="#000000">
            <g id="t" transform="translate(92.000000, 200.000000)">
                <path d="M3.96875,0.53125 L7.40625,0 L7.40625,3.5625 L11.53125,3.5625 L11.53125,6.4375 L7.40625,6.4375 L7.40625,10.6875 C7.40625,11.4166667 7.53125,12 7.78125,12.4375 C8.03125,12.875 8.54166667,13.09375 9.3125,13.09375 C9.72916667,13.09375 10.1145833,13.0520833 10.46875,12.96875 C10.8854167,12.90625 11.2395833,12.8125 11.53125,12.6875 L12.03125,15.375 C11.8020833,15.4583333 11.578125,15.5364583 11.359375,15.609375 C11.140625,15.6822917 10.8958333,15.75 10.625,15.8125 C10.125,15.9375 9.5,16 8.75,16 C7.79166667,16 7.02083333,15.875 6.4375,15.625 C5.79166667,15.3333333 5.30208333,14.9791667 4.96875,14.5625 C4.57291667,14.0625 4.3125,13.5104167 4.1875,12.90625 C4.04166667,12.3020833 3.96875,11.5833333 3.96875,10.75 L3.96875,0.53125 L3.96875,0.53125 Z" id="Shape"></path>
            </g>
        </g>
    </g>
</svg>

<svg xmlns="http://www.w3.org/2000/svg" viewBox="0 0 16 16">
    <path d="M3.969.531L7.406 0v3.563h4.125v2.874H7.406v4.25c0 .73.125 1.313.375 1.75.25.438.76.657 1.532.657.416 0 .802-.042 1.156-.125.416-.063.77-.156 1.062-.281l.5 2.687c-.229.083-.453.161-.672.234a7.888 7.888 0 0 1-2.61.39c-.957.001-1.728-.124-2.312-.374a3.884 3.884 0 0 1-1.468-1.063 3.917 3.917 0 0 1-.782-1.656 9.289 9.289 0 0 1-.218-2.156V.531z"/>
</svg>
